static/img/kroki/61041e327fee6bd5663791fc740210f9.svg

<?xml version="1.0" encoding="us-ascii" standalone="no"?><svg xmlns="http://www.w3.org/2000/svg" xmlns:xlink="http://www.w3.org/1999/xlink" contentStyleType="text/css" height="252px" preserveAspectRatio="none" style="width:1015px;height:252px;" version="1.1" viewBox="0 0 1015 252" width="1015px" zoomAndPan="magnify"><defs/><g><!--class aws_autoscaling_group--><g id="elem_aws_autoscaling_group"><rect codeLine="23" fill="#3D176E" height="39.7891" id="aws_autoscaling_group" rx="2.5" ry="2.5" style="stroke:#000D19;stroke-width:0.5;" width="236" x="394.5" y="106.79"/><ellipse cx="409.5" cy="126.6845" fill="#ADD1B2" rx="11" ry="11" style="stroke:#181818;stroke-width:1.0;"/><path d="M412.4688,132.3252 Q411.8906,132.622 411.25,132.7627 Q410.6094,132.9189 409.9063,132.9189 Q407.4063,132.9189 406.0781,131.2783 Q404.7656,129.622 404.7656,126.497 Q404.7656,123.372 406.0781,121.7158 Q407.4063,120.0595 409.9063,120.0595 Q410.6094,120.0595 411.25,120.2158 Q411.9063,120.372 412.4688,120.6689 L412.4688,123.3877 Q411.8438,122.8095 411.25,122.5439 Q410.6563,122.2627 410.0313,122.2627 Q408.6875,122.2627 408,123.3408 Q407.3125,124.4033 407.3125,126.497 Q407.3125,128.5908 408,129.6689 Q408.6875,130.7314 410.0313,130.7314 Q410.6563,130.7314 411.25,130.4658 Q411.8438,130.1845 412.4688,129.6064 L412.4688,132.3252 Z " fill="#000000"/><text fill="#D9B8FF" font-family="Helvetica" font-size="17" lengthAdjust="spacing" textLength="194" x="428.5" y="132.5698">aws_autoscaling_group</text></g><!--class aws_beanstalk_environment--><g id="elem_aws_beanstalk_environment"><rect codeLine="26" fill="#3D176E" height="39.7891" id="aws_beanstalk_environment" rx="2.5" ry="2.5" style="stroke:#000D19;stroke-width:0.5;" width="283" x="725" y="7"/><ellipse cx="740" cy="26.8945" fill="#ADD1B2" rx="11" ry="11" style="stroke:#181818;stroke-width:1.0;"/><path d="M742.9688,32.5352 Q742.3906,32.832 741.75,32.9727 Q741.1094,33.1289 740.4063,33.1289 Q737.9063,33.1289 736.5781,31.4883 Q735.2656,29.832 735.2656,26.707 Q735.2656,23.582 736.5781,21.9258 Q737.9063,20.2695 740.4063,20.2695 Q741.1094,20.2695 741.75,20.4258 Q742.4063,20.582 742.9688,20.8789 L742.9688,23.5977 Q742.3438,23.0195 741.75,22.7539 Q741.1563,22.4727 740.5313,22.4727 Q739.1875,22.4727 738.5,23.5508 Q737.8125,24.6133 737.8125,26.707 Q737.8125,28.8008 738.5,29.8789 Q739.1875,30.9414 740.5313,30.9414 Q741.1563,30.9414 741.75,30.6758 Q742.3438,30.3945 742.9688,29.8164 L742.9688,32.5352 Z " fill="#000000"/><text fill="#D9B8FF" font-family="Helvetica" font-size="17" lengthAdjust="spacing" textLength="241" x="759" y="32.7798">aws_beanstalk_environment</text></g><!--class aws_ec2_instance--><g id="elem_aws_ec2_instance"><rect codeLine="29" fill="#3D176E" height="39.7891" id="aws_ec2_instance" rx="2.5" ry="2.5" style="stroke:#000D19;stroke-width:0.5;" width="192" x="669.5" y="206.58"/><ellipse cx="684.5" cy="226.4745" fill="#ADD1B2" rx="11" ry="11" style="stroke:#181818;stroke-width:1.0;"/><path d="M687.4688,232.1152 Q686.8906,232.412 686.25,232.5527 Q685.6094,232.7089 684.9063,232.7089 Q682.4063,232.7089 681.0781,231.0683 Q679.7656,229.412 679.7656,226.287 Q679.7656,223.162 681.0781,221.5058 Q682.4063,219.8495 684.9063,219.8495 Q685.6094,219.8495 686.25,220.0058 Q686.9063,220.162 687.4688,220.4589 L687.4688,223.1777 Q686.8438,222.5995 686.25,222.3339 Q685.6563,222.0527 685.0313,222.0527 Q683.6875,222.0527 683,223.1308 Q682.3125,224.1933 682.3125,226.287 Q682.3125,228.3808 683,229.4589 Q683.6875,230.5214 685.0313,230.5214 Q685.6563,230.5214 686.25,230.2558 Q686.8438,229.9745 687.4688,229.3964 L687.4688,232.1152 Z " fill="#000000"/><text fill="#D9B8FF" font-family="Helvetica" font-size="17" lengthAdjust="spacing" textLength="150" x="703.5" y="232.3598">aws_ec2_instance</text></g><!--class aws_ec2_launch_template--><g id="elem_aws_ec2_launch_template"><rect codeLine="32" fill="#3D176E" height="39.7891" id="aws_ec2_launch_template" rx="2.5" ry="2.5" style="stroke:#000D19;stroke-width:0.5;" width="263" x="371" y="206.58"/><ellipse cx="386" cy="226.4745" fill="#ADD1B2" rx="11" ry="11" style="stroke:#181818;stroke-width:1.0;"/><path d="M388.9688,232.1152 Q388.3906,232.412 387.75,232.5527 Q387.1094,232.7089 386.4063,232.7089 Q383.9063,232.7089 382.5781,231.0683 Q381.2656,229.412 381.2656,226.287 Q381.2656,223.162 382.5781,221.5058 Q383.9063,219.8495 386.4063,219.8495 Q387.1094,219.8495 387.75,220.0058 Q388.4063,220.162 388.9688,220.4589 L388.9688,223.1777 Q388.3438,222.5995 387.75,222.3339 Q387.1563,222.0527 386.5313,222.0527 Q385.1875,222.0527 384.5,223.1308 Q383.8125,224.1933 383.8125,226.287 Q383.8125,228.3808 384.5,229.4589 Q385.1875,230.5214 386.5313,230.5214 Q387.1563,230.5214 387.75,230.2558 Q388.3438,229.9745 388.9688,229.3964 L388.9688,232.1152 Z " fill="#000000"/><text fill="#D9B8FF" font-family="Helvetica" font-size="17" lengthAdjust="spacing" textLength="221" x="405" y="232.3598">aws_ec2_launch_template</text></g><!--class aws_ecs_capacity_provider--><g id="elem_aws_ecs_capacity_provider"><rect codeLine="35" fill="#3D176E" height="39.7891" id="aws_ecs_capacity_provider" rx="2.5" ry="2.5" style="stroke:#000D19;stroke-width:0.5;" width="265" x="7" y="7"/><ellipse cx="22" cy="26.8945" fill="#ADD1B2" rx="11" ry="11" style="stroke:#181818;stroke-width:1.0;"/><path d="M24.9688,32.5352 Q24.3906,32.832 23.75,32.9727 Q23.1094,33.1289 22.4063,33.1289 Q19.9063,33.1289 18.5781,31.4883 Q17.2656,29.832 17.2656,26.707 Q17.2656,23.582 18.5781,21.9258 Q19.9063,20.2695 22.4063,20.2695 Q23.1094,20.2695 23.75,20.4258 Q24.4063,20.582 24.9688,20.8789 L24.9688,23.5977 Q24.3438,23.0195 23.75,22.7539 Q23.1563,22.4727 22.5313,22.4727 Q21.1875,22.4727 20.5,23.5508 Q19.8125,24.6133 19.8125,26.707 Q19.8125,28.8008 20.5,29.8789 Q21.1875,30.9414 22.5313,30.9414 Q23.1563,30.9414 23.75,30.6758 Q24.3438,30.3945 24.9688,29.8164 L24.9688,32.5352 Z " fill="#000000"/><text fill="#D9B8FF" font-family="Helvetica" font-size="17" lengthAdjust="spacing" textLength="223" x="41" y="32.7798">aws_ecs_capacity_provider</text></g><!--class aws_eks_nodegroup--><g id="elem_aws_eks_nodegroup"><rect codeLine="38" fill="#3D176E" height="39.7891" id="aws_eks_nodegroup" rx="2.5" ry="2.5" style="stroke:#000D19;stroke-width:0.5;" width="210" x="307.5" y="7"/><ellipse cx="322.5" cy="26.8945" fill="#ADD1B2" rx="11" ry="11" style="stroke:#181818;stroke-width:1.0;"/><path d="M325.4688,32.5352 Q324.8906,32.832 324.25,32.9727 Q323.6094,33.1289 322.9063,33.1289 Q320.4063,33.1289 319.0781,31.4883 Q317.7656,29.832 317.7656,26.707 Q317.7656,23.582 319.0781,21.9258 Q320.4063,20.2695 322.9063,20.2695 Q323.6094,20.2695 324.25,20.4258 Q324.9063,20.582 325.4688,20.8789 L325.4688,23.5977 Q324.8438,23.0195 324.25,22.7539 Q323.6563,22.4727 323.0313,22.4727 Q321.6875,22.4727 321,23.5508 Q320.3125,24.6133 320.3125,26.707 Q320.3125,28.8008 321,29.8789 Q321.6875,30.9414 323.0313,30.9414 Q323.6563,30.9414 324.25,30.6758 Q324.8438,30.3945 325.4688,29.8164 L325.4688,32.5352 Z " fill="#000000"/><text fill="#D9B8FF" font-family="Helvetica" font-size="17" lengthAdjust="spacing" textLength="168" x="341.5" y="32.7798">aws_eks_nodegroup</text></g><!--class aws_region--><g id="elem_aws_region"><rect codeLine="41" fill="#3D176E" height="39.7891" id="aws_region" rx="2.5" ry="2.5" style="stroke:#000D19;stroke-width:0.5;" width="137" x="553" y="7"/><ellipse cx="568" cy="26.8945" fill="#ADD1B2" rx="11" ry="11" style="stroke:#181818;stroke-width:1.0;"/><path d="M570.9688,32.5352 Q570.3906,32.832 569.75,32.9727 Q569.1094,33.1289 568.4063,33.1289 Q565.9063,33.1289 564.5781,31.4883 Q563.2656,29.832 563.2656,26.707 Q563.2656,23.582 564.5781,21.9258 Q565.9063,20.2695 568.4063,20.2695 Q569.1094,20.2695 569.75,20.4258 Q570.4063,20.582 570.9688,20.8789 L570.9688,23.5977 Q570.3438,23.0195 569.75,22.7539 Q569.1563,22.4727 568.5313,22.4727 Q567.1875,22.4727 566.5,23.5508 Q565.8125,24.6133 565.8125,26.707 Q565.8125,28.8008 566.5,29.8789 Q567.1875,30.9414 568.5313,30.9414 Q569.1563,30.9414 569.75,30.6758 Q570.3438,30.3945 570.9688,29.8164 L570.9688,32.5352 Z " fill="#000000"/><text fill="#D9B8FF" font-family="Helvetica" font-size="17" lengthAdjust="spacing" textLength="95" x="587" y="32.7798">aws_region</text></g><!--link aws_autoscaling_group to aws_ec2_instance--><g id="link_aws_autoscaling_group_aws_ec2_instance"><path codeLine="44" d="M562.48,147.01 C606.84,164.15 665.7039,186.8958 710.0239,204.0358 " fill="none" id="aws_autoscaling_group-to-aws_ec2_instance" style="stroke:#1A83AF;stroke-width:2.0;"/><polygon fill="#1A83AF" points="715.62,206.2,708.6687,199.223,710.9566,204.3965,705.7831,206.6844,715.62,206.2" style="stroke:#1A83AF;stroke-width:2.0;"/></g><!--link aws_autoscaling_group to aws_ec2_launch_template--><g id="link_aws_autoscaling_group_aws_ec2_launch_template"><path codeLine="45" d="M510.52,147.01 C508.77,164.15 506.8294,183.091 505.0794,200.231 " fill="none" id="aws_autoscaling_group-to-aws_ec2_launch_template" style="stroke:#1A83AF;stroke-width:2.0;"/><polygon fill="#1A83AF" points="504.47,206.2,509.3635,197.6528,504.9779,201.2259,501.4048,196.8403,504.47,206.2" style="stroke:#1A83AF;stroke-width:2.0;"/></g><!--link aws_beanstalk_environment to aws_autoscaling_group--><g id="link_aws_beanstalk_environment_aws_autoscaling_group"><path codeLine="46" d="M796.56,47.22 C734.6,64.33 650.3833,87.5921 588.3833,104.7221 " fill="none" id="aws_beanstalk_environment-to-aws_autoscaling_group" style="stroke:#1A83AF;stroke-width:2.0;"/><polygon fill="#1A83AF" points="582.6,106.32,592.3402,107.7787,587.4194,104.9884,590.2097,100.0676,582.6,106.32" style="stroke:#1A83AF;stroke-width:2.0;"/></g><!--link aws_beanstalk_environment to aws_ec2_instance--><g id="link_aws_beanstalk_environment_aws_ec2_instance"><path codeLine="47" d="M856.63,47.2 C837.32,84.97 797.4812,162.9177 778.1412,200.7477 " fill="none" id="aws_beanstalk_environment-to-aws_ec2_instance" style="stroke:#1A83AF;stroke-width:2.0;"/><polygon fill="#1A83AF" points="775.41,206.09,783.0683,199.8973,777.686,201.638,775.9452,196.2557,775.41,206.09" style="stroke:#1A83AF;stroke-width:2.0;"/></g><!--link aws_ecs_capacity_provider to aws_autoscaling_group--><g id="link_aws_ecs_capacity_provider_aws_autoscaling_group"><path codeLine="48" d="M213.19,47.22 C278.48,64.33 367.5062,87.6682 432.8362,104.7982 " fill="none" id="aws_ecs_capacity_provider-to-aws_autoscaling_group" style="stroke:#1A83AF;stroke-width:2.0;"/><polygon fill="#1A83AF" points="438.64,106.32,430.9488,100.1681,433.8035,105.0518,428.9198,107.9065,438.64,106.32" style="stroke:#1A83AF;stroke-width:2.0;"/></g><!--link aws_eks_nodegroup to aws_autoscaling_group--><g id="link_aws_eks_nodegroup_aws_autoscaling_group"><path codeLine="49" d="M432.26,47.22 C449.79,64.36 470.9823,85.0729 488.4923,102.2129 " fill="none" id="aws_eks_nodegroup-to-aws_autoscaling_group" style="stroke:#1A83AF;stroke-width:2.0;"/><polygon fill="#1A83AF" points="492.78,106.41,489.1465,97.2559,489.2069,102.9124,483.5504,102.9728,492.78,106.41" style="stroke:#1A83AF;stroke-width:2.0;"/></g><!--link aws_region to aws_autoscaling_group--><g id="link_aws_region_aws_autoscaling_group"><path codeLine="50" d="M599.97,47.22 C580.86,64.36 557.5556,85.2627 538.4556,102.4027 " fill="none" id="aws_region-to-aws_autoscaling_group" style="stroke:#1A83AF;stroke-width:2.0;"/><polygon fill="#1A83AF" points="533.99,106.41,543.3599,103.3761,537.7113,103.0706,538.0168,97.422,533.99,106.41" style="stroke:#1A83AF;stroke-width:2.0;"/></g><!--link aws_region to aws_ec2_instance--><g id="link_aws_region_aws_ec2_instance"><path codeLine="51" d="M635.57,47.2 C663.1,84.97 720.2662,163.4111 747.8362,201.2411 " fill="none" id="aws_region-to-aws_ec2_instance" style="stroke:#1A83AF;stroke-width:2.0;"/><polygon fill="#1A83AF" points="751.37,206.09,749.3019,196.4607,748.4251,202.0492,742.8366,201.1725,751.37,206.09" style="stroke:#1A83AF;stroke-width:2.0;"/></g><!--SRC=[fPDTQy8m58Rl-oi2NWjsigatWqwGxKR6tDqOvJGvrT0qAIUfuiR- -zhfHctg5xlDUKxU3vAL5CWmBzoMvPWdI3QmcTG54EGi8ZARgL66M2zD8HsEsiEPqUuiC8SSsIEgDJh9eKsyhYJFD5hBRXgZ1-3PaaofnUvwHw1jDKBj6jHKWRMHSoIJqc73Z9WaupHja-rBUqCHZkxGmmm9f3qo60n4E6aZPwLEvluZ5l83MTWiRMuSUZOzYH_gfCkQQ9ZqWlxEZtfy1Y6aNhBRnjdBpXDff8FpnGg4sTHq2iesPQn3GkEs1KwzL3WPYtJK2JyTWmDULyTWOsCedR4SL2KRrsZ1FeFWgm4aM3qP1ogBKQyb6PrNZwSD8R-9POrfZbqp1QNcgzXLNqI1wq1ipA40BjqsBiYig-z47fJPM1k1dIu9bzBetMbthFvRBup6msZsth_tF5-pqyeI72_9M_SKhbds_7QtTg7eOPiNBkrR_YTz4EGR]--></g></svg>

<svg xmlns="http://www.w3.org/2000/svg" width="1015" height="252" viewBox="0 0 1015 252"><rect width="236" height="39.789" x="394.5" y="106.79" fill="#3D176E" rx="2.5" ry="2.5" style="stroke:#000d19;stroke-width:.5"/><circle cx="409.5" cy="126.684" r="11" fill="#ADD1B2" style="stroke:#181818;stroke-width:1"/><path d="M412.469 132.325q-.578.297-1.219.438-.64.156-1.344.156-2.5 0-3.828-1.64-1.312-1.657-1.312-4.782t1.312-4.781q1.328-1.656 3.828-1.656.703 0 1.344.156.656.156 1.219.453v2.719q-.625-.579-1.219-.844-.594-.281-1.219-.281-1.344 0-2.031 1.078-.687 1.062-.687 3.156t.687 3.172q.688 1.062 2.031 1.062.625 0 1.219-.265.594-.281 1.219-.86z"/><text x="428.5" y="132.57" fill="#D9B8FF" font-family="Helvetica" font-size="17" textLength="194">aws_autoscaling_group</text><rect width="283" height="39.789" x="725" y="7" fill="#3D176E" rx="2.5" ry="2.5" style="stroke:#000d19;stroke-width:.5"/><circle cx="740" cy="26.895" r="11" fill="#ADD1B2" style="stroke:#181818;stroke-width:1"/><path d="M742.969 32.535q-.578.297-1.219.438-.64.156-1.344.156-2.5 0-3.828-1.64-1.312-1.657-1.312-4.782t1.312-4.781q1.328-1.656 3.828-1.656.703 0 1.344.156.656.156 1.219.453v2.719q-.625-.578-1.219-.844-.594-.281-1.219-.281-1.343 0-2.031 1.078-.687 1.062-.687 3.156t.687 3.172q.688 1.062 2.031 1.062.625 0 1.219-.265.594-.281 1.219-.86z"/><text x="759" y="32.78" fill="#D9B8FF" font-family="Helvetica" font-size="17" textLength="241">aws_beanstalk_environment</text><rect width="192" height="39.789" x="669.5" y="206.58" fill="#3D176E" rx="2.5" ry="2.5" style="stroke:#000d19;stroke-width:.5"/><circle cx="684.5" cy="226.475" r="11" fill="#ADD1B2" style="stroke:#181818;stroke-width:1"/><path d="M687.469 232.115q-.578.297-1.219.438-.64.156-1.344.156-2.5 0-3.828-1.64-1.312-1.657-1.312-4.782t1.312-4.781q1.328-1.656 3.828-1.656.703 0 1.344.156.656.156 1.219.453v2.719q-.625-.578-1.219-.844-.594-.281-1.219-.281-1.343 0-2.031 1.078-.687 1.062-.687 3.156t.687 3.172q.688 1.062 2.031 1.062.625 0 1.219-.265.594-.281 1.219-.86z"/><text x="703.5" y="232.36" fill="#D9B8FF" font-family="Helvetica" font-size="17" textLength="150">aws_ec2_instance</text><rect width="263" height="39.789" x="371" y="206.58" fill="#3D176E" rx="2.5" ry="2.5" style="stroke:#000d19;stroke-width:.5"/><circle cx="386" cy="226.475" r="11" fill="#ADD1B2" style="stroke:#181818;stroke-width:1"/><path d="M388.969 232.115q-.578.297-1.219.438-.64.156-1.344.156-2.5 0-3.828-1.64-1.312-1.657-1.312-4.782t1.312-4.781q1.328-1.656 3.828-1.656.703 0 1.344.156.656.156 1.219.453v2.719q-.625-.578-1.219-.844-.594-.281-1.219-.281-1.344 0-2.031 1.078-.687 1.062-.687 3.156t.687 3.172q.688 1.062 2.031 1.062.625 0 1.219-.265.594-.281 1.219-.86z"/><text x="405" y="232.36" fill="#D9B8FF" font-family="Helvetica" font-size="17" textLength="221">aws_ec2_launch_template</text><rect width="265" height="39.789" x="7" y="7" fill="#3D176E" rx="2.5" ry="2.5" style="stroke:#000d19;stroke-width:.5"/><circle cx="22" cy="26.895" r="11" fill="#ADD1B2" style="stroke:#181818;stroke-width:1"/><path d="M24.969 32.535q-.578.297-1.219.438-.64.156-1.344.156-2.5 0-3.828-1.64-1.312-1.657-1.312-4.782t1.312-4.781q1.328-1.656 3.828-1.656.703 0 1.344.156.656.156 1.219.453v2.719q-.625-.578-1.219-.844-.594-.281-1.219-.281-1.343 0-2.031 1.078-.687 1.062-.687 3.156t.687 3.172q.688 1.062 2.031 1.062.625 0 1.219-.265.594-.281 1.219-.86z"/><text x="41" y="32.78" fill="#D9B8FF" font-family="Helvetica" font-size="17" textLength="223">aws_ecs_capacity_provider</text><rect width="210" height="39.789" x="307.5" y="7" fill="#3D176E" rx="2.5" ry="2.5" style="stroke:#000d19;stroke-width:.5"/><circle cx="322.5" cy="26.895" r="11" fill="#ADD1B2" style="stroke:#181818;stroke-width:1"/><path d="M325.469 32.535q-.578.297-1.219.438-.64.156-1.344.156-2.5 0-3.828-1.64-1.312-1.657-1.312-4.782t1.312-4.781q1.328-1.656 3.828-1.656.703 0 1.344.156.656.156 1.219.453v2.719q-.625-.578-1.219-.844-.594-.281-1.219-.281-1.344 0-2.031 1.078-.687 1.062-.687 3.156t.687 3.172q.688 1.062 2.031 1.062.625 0 1.219-.265.594-.281 1.219-.86z"/><text x="341.5" y="32.78" fill="#D9B8FF" font-family="Helvetica" font-size="17" textLength="168">aws_eks_nodegroup</text><rect width="137" height="39.789" x="553" y="7" fill="#3D176E" rx="2.5" ry="2.5" style="stroke:#000d19;stroke-width:.5"/><circle cx="568" cy="26.895" r="11" fill="#ADD1B2" style="stroke:#181818;stroke-width:1"/><path d="M570.969 32.535q-.578.297-1.219.438-.64.156-1.344.156-2.5 0-3.828-1.64-1.312-1.657-1.312-4.782t1.312-4.781q1.328-1.656 3.828-1.656.703 0 1.344.156.656.156 1.219.453v2.719q-.625-.578-1.219-.844-.594-.281-1.219-.281-1.343 0-2.031 1.078-.687 1.062-.687 3.156t.687 3.172q.688 1.062 2.031 1.062.625 0 1.219-.265.594-.281 1.219-.86z"/><text x="587" y="32.78" fill="#D9B8FF" font-family="Helvetica" font-size="17" textLength="95">aws_region</text><path fill="none" d="M562.48 147.01c44.36 17.14 103.224 39.886 147.544 57.026" style="stroke:#1a83af;stroke-width:2"/><path fill="#1A83AF" d="m715.62 206.2-6.951-6.977 2.288 5.173-5.174 2.288z" style="stroke:#1a83af;stroke-width:2"/><path fill="none" d="M510.52 147.01c-1.75 17.14-3.69 36.081-5.44 53.221" style="stroke:#1a83af;stroke-width:2"/><path fill="#1A83AF" d="m504.47 206.2 4.893-8.547-4.385 3.573-3.573-4.386z" style="stroke:#1a83af;stroke-width:2"/><path fill="none" d="M796.56 47.22c-61.96 17.11-146.177 40.372-208.177 57.502" style="stroke:#1a83af;stroke-width:2"/><path fill="#1A83AF" d="m582.6 106.32 9.74 1.459-4.92-2.79 2.79-4.921z" style="stroke:#1a83af;stroke-width:2"/><path fill="none" d="M856.63 47.2c-19.31 37.77-59.149 115.718-78.489 153.548" style="stroke:#1a83af;stroke-width:2"/><path fill="#1A83AF" d="m775.41 206.09 7.658-6.193-5.382 1.741-1.74-5.382z" style="stroke:#1a83af;stroke-width:2"/><path fill="none" d="M213.19 47.22c65.29 17.11 154.316 40.448 219.646 57.578" style="stroke:#1a83af;stroke-width:2"/><path fill="#1A83AF" d="m438.64 106.32-7.691-6.152 2.854 4.884-4.883 2.854z" style="stroke:#1a83af;stroke-width:2"/><path fill="none" d="M432.26 47.22c17.53 17.14 38.722 37.853 56.232 54.993" style="stroke:#1a83af;stroke-width:2"/><path fill="#1A83AF" d="m492.78 106.41-3.633-9.154.06 5.656-5.657.06z" style="stroke:#1a83af;stroke-width:2"/><path fill="none" d="M599.97 47.22c-19.11 17.14-42.414 38.043-61.514 55.183" style="stroke:#1a83af;stroke-width:2"/><path fill="#1A83AF" d="m533.99 106.41 9.37-3.034-5.649-.305.306-5.649z" style="stroke:#1a83af;stroke-width:2"/><path fill="none" d="M635.57 47.2c27.53 37.77 84.696 116.211 112.266 154.041" style="stroke:#1a83af;stroke-width:2"/><path fill="#1A83AF" d="m751.37 206.09-2.068-9.63-.877 5.59-5.588-.877z" style="stroke:#1a83af;stroke-width:2"/></svg>
